X:1
T:Dictes vous que ne scay
T:des Fruz
T:Source : Livre premier contenant 29 chansons nouvelles à 4 parties---Paris---P.Attaignant---1536. Editor : André Vierendeels ( 07/01/18).
T:Dictes vous que ne scay
T:©
T:©
T:©
T:©
T:©
T:©
T:©
C:des Fruz
Z:©
%%score [ 1 [ 2 3 4 ] ]
L:1/8
Q:1/4=121
M:2/2
K:F
V:1 treble nm="Soprano" snm="S"
V:2 treble-8 nm="Tenor 1" snm="T 1"
V:3 treble-8 nm="Tenor 2" snm="T 2"
V:4 treble-8 nm="Tenor 3" snm="T 3"
V:1
 G2 G2 d3 c | B2 B2 A2 A2 | z2 GG c2 c2 | d3 c B4 | A2 f2 e2 d2- | d2 c2 d4 | z4 G3 B | %7
w: Dic- tes vous que|ne scay fai- re,|dic- tes vous que|ne scay fai-|re, que ne scay|_ fai- re,|d'a- mou-|
 A2 G2 G3 B | A2 G2 d3 c | B2 A3 G G2- |"^#" G2 F2 G4 | G3 G A2 d2 | c2 B2 A2 G2 | B3 B A3 F | %14
w: ret- tes io- ly-|et- tes tant fris-|quet- tes _ le|_ de- duys,|le cu- ré et|sa com- me- re|es- toient cou- chés|
 G2 G2 A2 z2 | f3 f e2 d2 | d2 c2 d2 BB | A2 G2 G2 F2 | G4 z4 | z2 GG A2 d2 | c2 B2 A2 G2 | %21
w: sur ung lict,|es- toient cou- chés|sur ung lict, es- toient|cou- chés sur ung|lict,|el- le luy fai-|soit pri- è- re|
 B3 B A2 F2 | G2 G2 A2 z2 | f3 f e2 d2 | d2 c2 d2 BB | A2 G2 G2 F2 | G2 B4 c2 | A2 B2 d3 d | %28
w: de con- fes- ser|ung pe- tit,|de con- fes- ser|ung pe- tit, de con|fes- ser ung pe-|tit, il se|fist quel- que mi-|
 c2 B2 f3 f | e2 d2 c2 B2 | A4 z2 ff | e2 d2 d2 c2 | d8- | d8 | z2 GA B2 G2 | A2 B2 c2 G2 | %36
w: stè- re car on|brans- loit le cha-|lict, car on|brans- loit le cha-|lict,|_|et j'en- ten- dis|le com- pè- re|
 z2 GG FGAF | E2 z2 z2 GG | F2 B2 A2 G2- |"^#" G2 F2 G4 | G2 G2 d3 c | B2 B2 A2 A2 | z2 GG c2 c2 | %43
w: di- sant d'ung grant a- pé-|tit, di- sant|d'ung grant a- pé-|* * tit:|dic- tes vous que|ne sacay fai- re,|dic- tes vous que|
 d3 c B4 | A2 f2 e2 d2- | d2 c2 d4 | z4 G3 B | A2 G2 G3 B | A2 G2 d3 c | B2 A3 G G2- | %50
w: ne saay fai-|re, d'a- mou- t-|ret- * tes,|io- ly-|et- tes tant fris-|quet- tes, d'a- mou-|ret- tes _ le|
"^#" G2 F2 G4- | G8 |] %52
w: _ de- duys?|_|
V:2
 z4 d2 d2 | g2 g2 f3 f | dcde f4- | f4 z4 | z2 dd g2 g2 | a3 g f2 e2 | d3 f e2 d2 | f2 d2 c2 B2 | %8
w: Dic- tes|vous que ne scay|fai- * * * re|_|Dic- tes vous que|ne scay fai- re,|d'a- mou- ret- tes|io- ly- et- tes|
 fd d2 f2 g2- | gf f4 _e2 | d2 d2 B4 | z4 d3 d | e2 g2 f2 e2 | d2 d2 f3 f | e2 d2 d2 c2 | %15
w: tant fris- quet- tes, d'a-|* mou- ret- tes|le de- duyt,|le cu-|ré et sa com-|me- re es- toient|cou- chés sur ung|
 d2 aa g2 f2 | a3 g fe f2- | f2 e2 d4 | z2 GG A2 d2 | c2 B2 ADdd | e2 g2 f2 e2 | d2 d2 f3 f | %22
w: lict, es- toient cou- chés|sur _ _ _ _|_ ung lict,|el- le luy fai-|soit pri- è- re, el- le|luy fai- soit pri-|è- re de con-|
 e2 d2 d2 c2 | d2 fa g2 f2 | a3 g fe f2- | f2 e2 d4 | z2 d4 e2 | c2 g2 g2 f2 | f2 d2 f3 f | %29
w: fes- ser ung pe-|tit, de con- fes- ser|ung _ _ _ _|_ pe- tit,|il se|fist quel- que mi-|stè- re car on|
 g3 f ef d2 | z2 dd g2 f2 | gfed e2 e2 | d8 | z2 de f2 d2 | e3 f g2 d2 | z2 BB G2 G2 | %36
w: brans- loit le cha- lict,|car on brans- loit|le _ _ _ _ cha-|lict,|et j'en- ten- dis|le com- pè- re,|et j'en- ten- dis|
 GA Bc d2 A2 | z2 BB cddc | d2 de f2 _e2 | d2 d2 B4 | z4 d2 d2 | g2 g2 f3 e | dcde f4- | f4 z4 | %44
w: le _ com- * pè- re|di- sant d'ung grant a- pe-|rit, di- sant d'ung grant|a- pe- tit:|dic- tes|vous que ne scay|fai- * * * re,|_|
 z2 dd g2 g2 | a3 g f2 e2 | d3 f e2 d2 | f2 d2 c2 B2 | fd e2 f2 g2- | gf f4 _e2 | d2 d2 B4- | B8 |] %52
w: dic- tes vous que|ne scay fai- re|d'a- mou- ret- tes|io- ly- et- tes|tant fris- quet- tes, d'a-|* mou- ret- tes|le de- duys?|_|
V:3
 z8 | G2 G2 d3 c | B2 B2 A2 A2 | z2 dd g2 g2 | f2 f2 gfed | e4 d4 | B3 d c2 B2 | d3 f e2 d2 | %8
w: |Dic- tes vous que|ne scay fai- re,|dic- tes vous que|ne scay fai- * * *|* re,|d'a- mou- ret- tes|io- ly- et- tes|
 dd G2 A2 B2- | Bd c4 B2 | A2 A2 G4- | G4 z4 | z8 | G3 G A2 d2 | c2 B2 A2 G2 | A3 A c2 d2 | %16
w: tant fris- quet- tes, d'a-|* mou- ret- tes|le de- duys,|_||le cu- ré et|sa com- me- re|es- toient cou- chés|
 f2 e2 d2 dd | c2 B2 A2 A2 | G4 z2 GG | A2 d2 c2 B2 | A2 G2 z4 | z2 GG A2 d2 | c2 B2 A2 G2 | %23
w: sur ung lict, es- toient|cou- chés sur ung|lict, el- le|luy fai- soit pri-|è- re,|el- le luy fai-|sait pri- è- re|
 A3 A c2 d2 | f2 e2 d2 dd | c3 B A2 A2 | G8 | z2 B4 d2 | A2 B2 d3 d | c2 B2 z4 | f3 f e2 d2 | %31
w: de con- fes- ser|ung pe- tit, de con-|fes- ser ung pe-|tit,|il se|fist quel- que mi-|stè- re,|car on brans- loit|
 c2 B2 A4 | z4 z2 GA | B2 G2 A2 B2 | c2 G2 z2 de | f2 d2 e3 f | g2 d2 z2 dd | ccdB A2 BG | %38
w: le cha- lict,|et j'en-|ten dis le com-|pè- re, et j'en-|ten- dis le com-|pè- re di- sant|d'ung grant a- pe- tit, di- sant|
 A2 B2 cBAG | A2 A2 G4- | G8 | G2 G2 d3 c | B2 B2 A2 A2 | z2 dd g2 g2 | f2 f2 gfed | e4 d4 | %46
w: d'ung grant a- * * *|* pe- tit:|_|dic- tes vous que|ne scay fai- re,|dic- tes vous que|ne scay fai- * * *|* re|
 B3 d c2 B2 | d3 f e2 d2 | dd G2 A2 B2- | Bd c4 B2 | A2 A2 G4- | G8 |] %52
w: d'a- mou- ret- tes|io- ly- et- tes|tant fris- quet- tes, d'a-|* mou- ret- tes|le de- duys?|_|
V:4
 z8 | z4 D2 D2 | G2 G2 F3 E | D2 D2 z2 GG | d2 d2 c2 B2 | A4 D4 | G3 F C2 G2 | z2 GF C2 G2 | %8
w: |Dic- tes|vous que ne scay|fai- re, dic- tes|vous que ne scay|fai- re,|d'a- mou- ret- tes|io- ly et- tes|
 DF E2 D2 G2- | GB F4 G2 | D2 D2 G4- | G4 z4 | z8 | z4 D3 D | E2 G2 F2 E2 | D2 D2 z2 BB | %16
w: tant fris- quet- tes, d'a-|* mou- ret- tes|le de- duys,|_||le cu-|ré et sa com-|mè- re es- toient|
 A2 A2 B3 A | F2 G2 D2 DD | E2 G2 F2 B2 | A2 G2 z4 | z8 | z4 z2 DD | E2 G2 F2 E2 | D2 D2 z2 BB | %24
w: cou- chés sur _|_ ung lict, el- le|luy fai- soit pri-|è- re||el- le|luy fai- soit pri-|è- re de con-|
 A2 A2 B3 G | F2 G2 D4 | z2 G4 C2 | F2 G2 A2 B2 | F2 G4 z2 | z2 GG AFGG | D4 z4 | z8 | z2 GA B3 A | %33
w: fes- ser ung _|_ pe- tit,|il se|fist quel- que mi-|stè- re,|car on brans- loit le cha-|lict,||et j'en- ten- dis|
 G4 F2 G2 | C2 z2 GA B2 | F2 G2 C3 D | EF G2 D4 | z2 GG FFGE | D2 GG F2 G2 | D2 D2 G2 GG | d4 z4 | %41
w: le com- pè-|re, et j'en- ten-|dis le com- *|* * pè- re,|di- sant d'i- ung grant a-|pe- tit, di- sant d'ung|grant a- pe- tit, di-|sant:|
 z4 D2 D2 | G2 G2 F3 E | D2 D2 z2 GG | d2 d2 c2 B2 | A4 D4 | G3 F C2 G2 | z2 GF C2 G2 | %48
w: dic- tes|vous que ne scay|fai- re, dic- tes|vous que nz scay|fa- re,|d'a- mou- ret- tes|io- ly- et- tes|
 DF E2 D2 G2- | GB F4 G2 | D2 D2 G4- | G8 |] %52
w: tant fris- quet- tes, d'a-|* mo- ret- tes|le de- duys?|_|

